dist/img/features/request-1.svg

<svg width="74" height="74" viewBox="0 0 74 74" fill="none" xmlns="http://www.w3.org/2000/svg">
<g clip-path="url(#clip0)">
<path d="M73.8705 59.7858L71.3444 52.8068H61.9389L59.4128 59.7858C59.2191 60.321 59.2435 60.9108 59.481 61.428L64.6714 72.7364C65.0248 73.5064 65.7945 74 66.6418 74C67.489 74 68.2588 73.5064 68.6122 72.7364L73.8024 61.428C74.0398 60.9108 74.0642 60.3209 73.8705 59.7858Z" fill="#F4F1F1"/>
<path d="M73.8705 59.7858L71.3444 52.8068H66.6419V74C67.4892 74 68.2588 73.5064 68.6122 72.7364L73.8024 61.428C74.0398 60.9108 74.0642 60.3209 73.8705 59.7858Z" fill="#E7DFDD"/>
<path d="M52.9028 0H2.16797C0.970672 0 0 0.970672 0 2.16797V71.832C0 73.0293 0.970672 74 2.16797 74H52.9028C54.1001 74 55.0707 73.0293 55.0707 71.832V2.16797C55.0707 0.970672 54.1001 0 52.9028 0Z" fill="#F4F1F1"/>
<path d="M52.9028 0H27.5354V74H52.9028C54.1001 74 55.0707 73.0293 55.0707 71.832V2.16797C55.0707 0.970672 54.1001 0 52.9028 0Z" fill="#E7DFDD"/>
<path d="M48.187 20.7661H34.4191C33.2218 20.7661 32.2511 19.7954 32.2511 18.5981C32.2511 17.4008 33.2218 16.4301 34.4191 16.4301H48.187C49.3843 16.4301 50.355 17.4008 50.355 18.5981C50.355 19.7954 49.3843 20.7661 48.187 20.7661Z" fill="#38336B"/>
<path d="M48.187 33.9192H34.4191C33.2218 33.9192 32.2511 32.9485 32.2511 31.7512C32.2511 30.5539 33.2218 29.5832 34.4191 29.5832H48.187C49.3843 29.5832 50.355 30.5539 50.355 31.7512C50.355 32.9485 49.3843 33.9192 48.187 33.9192Z" fill="#38336B"/>
<path d="M48.187 47.0721H34.4191C33.2218 47.0721 32.2511 46.1014 32.2511 44.9041C32.2511 43.7068 33.2218 42.7361 34.4191 42.7361H48.187C49.3843 42.7361 50.355 43.7068 50.355 44.9041C50.355 46.1014 49.3843 47.0721 48.187 47.0721Z" fill="#38336B"/>
<path d="M48.187 60.7289H34.4191C33.2218 60.7289 32.2511 59.7582 32.2511 58.5609C32.2511 57.3636 33.2218 56.3929 34.4191 56.3929H48.187C49.3843 56.3929 50.355 57.3636 50.355 58.5609C50.355 59.7582 49.3843 60.7289 48.187 60.7289Z" fill="#38336B"/>
<path d="M12.1851 23.3548C11.6101 23.3548 11.0587 23.1265 10.6522 22.7197L7.54872 19.6162C6.70206 18.7696 6.70206 17.397 7.54872 16.5503C8.39539 15.7036 9.76815 15.7038 10.6147 16.5503L12.1851 18.1208L17.2374 13.0685C18.0839 12.2219 19.4567 12.2219 20.3033 13.0685C21.15 13.9152 21.15 15.2878 20.3033 16.1345L13.7182 22.7197C13.3116 23.1265 12.7601 23.3548 12.1851 23.3548Z" fill="#FFB500"/>
<path d="M12.1851 36.5079C11.6101 36.5079 11.0587 36.2795 10.6522 35.8728L7.54872 32.7693C6.70206 31.9226 6.70206 30.55 7.54872 29.7034C8.39539 28.8567 9.76815 28.8568 10.6147 29.7034L12.1851 31.2738L17.2374 26.2216C18.0839 25.3749 19.4567 25.3749 20.3033 26.2216C21.15 27.0683 21.15 28.4409 20.3033 29.2875L13.7182 35.8728C13.3116 36.2794 12.7601 36.5079 12.1851 36.5079Z" fill="#FFB500"/>
<path d="M12.1851 49.6608C11.6101 49.6608 11.0587 49.4324 10.6522 49.0257L7.54872 45.9222C6.70206 45.0755 6.70206 43.7029 7.54872 42.8563C8.39539 42.0096 9.76815 42.0096 10.6147 42.8563L12.1851 44.4267L17.2374 39.3745C18.0839 38.528 19.4567 38.5278 20.3033 39.3745C21.15 40.2212 21.15 41.5938 20.3033 42.4404L13.7182 49.0256C13.3116 49.4324 12.7601 49.6608 12.1851 49.6608Z" fill="#FFB500"/>
<path d="M74 7.35809V52.5371C74 53.7353 73.0287 54.7051 71.832 54.7051H61.4518C60.2536 54.7051 59.2838 53.7353 59.2838 52.5371V7.35809C59.2838 3.30109 62.5849 0 66.6419 0C70.6989 0 74 3.30109 74 7.35809Z" fill="#C691F0"/>
<path d="M66.6419 0V54.7051H71.8321C73.0288 54.7051 74 53.7353 74 52.5371V7.35809C74 3.30109 70.6989 0 66.6419 0V0Z" fill="#AB66D9"/>
<path d="M59.2838 13.7174H74V18.0534H59.2838V13.7174Z" fill="#FFD18B"/>
<path d="M66.6419 13.7174H74V18.0534H66.6419V13.7174Z" fill="#BA7B00"/>
</g>
<defs>
<clipPath id="clip0">
<rect width="74" height="74" fill="white"/>
</clipPath>
</defs>
</svg>

<svg width="74" height="74" fill="none" xmlns="http://www.w3.org/2000/svg"><g clip-path="url(#clip0)"><path d="M73.87 59.786l-2.526-6.98H61.94l-2.526 6.98a2.167 2.167 0 00.068 1.642l5.19 11.308a2.168 2.168 0 003.941 0l5.19-11.308a2.168 2.168 0 00.069-1.642z" fill="#F4F1F1"/><path d="M73.87 59.786l-2.526-6.98h-4.702V74c.847 0 1.617-.494 1.97-1.264l5.19-11.308a2.168 2.168 0 00.069-1.642z" fill="#E7DFDD"/><path d="M52.903 0H2.168C.971 0 0 .97 0 2.168v69.664C0 73.029.97 74 2.168 74h50.735c1.197 0 2.168-.97 2.168-2.168V2.168A2.17 2.17 0 0052.903 0z" fill="#F4F1F1"/><path d="M52.903 0H27.535v74h25.368c1.197 0 2.168-.97 2.168-2.168V2.168A2.17 2.17 0 0052.903 0z" fill="#E7DFDD"/><path d="M48.187 20.766H34.419a2.168 2.168 0 010-4.336h13.768a2.168 2.168 0 010 4.336zm0 13.154H34.419a2.168 2.168 0 010-4.337h13.768a2.168 2.168 0 010 4.336zm0 13.152H34.419a2.168 2.168 0 010-4.336h13.768a2.168 2.168 0 010 4.336zm0 13.657H34.419a2.168 2.168 0 010-4.336h13.768a2.168 2.168 0 010 4.336z" fill="#38336B"/><path d="M12.185 23.355a2.167 2.167 0 01-1.533-.635L7.55 19.616a2.168 2.168 0 113.066-3.066l1.57 1.57 5.052-5.052a2.168 2.168 0 013.066 3.066l-6.585 6.586a2.167 2.167 0 01-1.533.635zm0 13.153a2.167 2.167 0 01-1.533-.635L7.55 32.769a2.168 2.168 0 113.066-3.066l1.57 1.57 5.052-5.051a2.168 2.168 0 113.066 3.066l-6.585 6.585a2.168 2.168 0 01-1.533.635zm0 13.152a2.167 2.167 0 01-1.533-.634L7.55 45.922a2.168 2.168 0 113.066-3.066l1.57 1.57 5.052-5.052a2.168 2.168 0 013.066 3.066l-6.585 6.586a2.168 2.168 0 01-1.533.635z" fill="#FFB500"/><path d="M74 7.358v45.18a2.168 2.168 0 01-2.168 2.167h-10.38a2.167 2.167 0 01-2.168-2.168V7.358c0-4.057 3.3-7.358 7.358-7.358C70.699 0 74 3.301 74 7.358z" fill="#C691F0"/><path d="M66.642 0v54.705h5.19c1.197 0 2.168-.97 2.168-2.168V7.358C74 3.301 70.699 0 66.642 0z" fill="#AB66D9"/><path d="M59.284 13.717H74v4.336H59.284v-4.336z" fill="#FFD18B"/><path d="M66.642 13.717H74v4.336h-7.358v-4.336z" fill="#BA7B00"/></g><defs><clipPath id="clip0"><path fill="#fff" d="M0 0h74v74H0z"/></clipPath></defs></svg>
